static/img/desmos-icon.svg

<svg width="50" height="50" viewBox="0 0 50 50" fill="none" xmlns="http://www.w3.org/2000/svg">
<g clip-path="url(#clip0_916_1779)">
<path d="M24.9454 49.9304C38.6441 49.9304 49.749 38.7598 49.749 24.9801C49.749 11.2004 38.6441 0.0297852 24.9454 0.0297852C11.2468 0.0297852 0.141907 11.2004 0.141907 24.9801C0.141907 38.7598 11.2468 49.9304 24.9454 49.9304Z" fill="#ED6C53"/>
<path d="M24.9454 49.9304C38.6441 49.9304 49.749 38.7598 49.749 24.9801C49.749 11.2004 38.6441 0.0297852 24.9454 0.0297852C11.2468 0.0297852 0.141907 11.2004 0.141907 24.9801C0.141907 38.7598 11.2468 49.9304 24.9454 49.9304Z" fill="#F3725A"/>
<path d="M24.9454 49.9304C38.6441 49.9304 49.749 38.7598 49.749 24.9801C49.749 11.2004 38.6441 0.0297852 24.9454 0.0297852C11.2468 0.0297852 0.141907 11.2004 0.141907 24.9801C0.141907 38.7598 11.2468 49.9304 24.9454 49.9304Z" fill="url(#paint0_linear_916_1779)"/>
<path d="M24.9049 47.9326C37.5291 47.9326 47.7631 37.6381 47.7631 24.9392C47.7631 12.2403 37.5291 1.9458 24.9049 1.9458C12.2807 1.9458 2.04672 12.2403 2.04672 24.9392C2.04672 37.6381 12.2807 47.9326 24.9049 47.9326Z" fill="url(#paint1_linear_916_1779)"/>
<path fill-rule="evenodd" clip-rule="evenodd" d="M21.2358 38.9907C23.0129 38.9907 25.0452 38.5381 27.1074 37.6916C27.172 37.6659 27.2362 37.6381 27.3001 37.6094C27.3588 37.583 27.4172 37.5561 27.4746 37.5292L27.5002 37.5176L27.5043 37.5156C28.3754 37.2993 29.2817 37.0028 30.1874 36.6262C36.005 34.2224 38.4635 30.383 38.82 27.5587C39.2485 24.1032 37.0629 20.7986 34.3159 18.3195C33.0091 16.7891 31.3894 15.4494 29.78 14.4156C27.7416 13.1019 25.6541 12.2017 23.8182 11.787C21.9888 11.3736 20.3811 11.4363 19.3272 12.0874C18.3147 12.7097 17.5699 13.8931 17.0559 15.6633C16.3054 16.539 15.7528 17.8641 15.3758 19.6637C14.995 21.4812 14.7912 23.7951 14.7509 26.6455C14.7102 29.6268 14.9141 32.0668 15.3642 33.949C15.8136 35.828 16.5127 37.1697 17.4791 37.9315C18.3625 38.6289 19.6684 38.9907 21.2358 38.9907ZM28.4867 34.8901C30.3944 34.1008 31.9427 33.1564 33.1785 32.1425C31.9727 33.7404 30.0424 35.3446 27.1881 36.6046C26.5525 36.7573 25.9392 36.8632 25.358 36.9218C24.7498 36.983 24.1764 36.9925 23.6485 36.9505C22.612 36.8679 21.7604 36.5875 21.1621 36.1179L21.0921 36.0597C21.5623 36.1437 22.0711 36.1895 22.6144 36.1895C24.3916 36.1895 26.4245 35.7363 28.4867 34.8901ZM34.7674 28.5013C34.7544 28.6244 34.7347 28.7496 34.7094 28.8785C34.6859 28.9977 34.6577 29.12 34.625 29.2469C33.3691 30.9534 31.2821 32.6842 28.1196 33.9952C26.4969 34.6662 24.9239 35.065 23.5361 35.1898C22.1681 35.3129 20.9899 35.1694 20.1205 34.7694C19.1937 32.9697 18.7433 29.9073 18.8054 25.5933C18.8454 22.8723 19.0377 20.6594 19.3846 18.9344C19.724 17.2464 20.2089 16.0393 20.8322 15.2784C22.7787 15.4202 25.3382 16.3799 27.8738 18.0171C29.7162 19.2051 31.5712 20.8029 32.8991 22.6187C34.2282 24.4353 35.0215 26.4576 34.7674 28.5013ZM28.4017 17.208C26.1619 15.7655 23.8616 14.8194 21.9004 14.4702C22.1206 14.3813 22.3692 14.315 22.6462 14.2728C22.8835 14.2366 23.1417 14.218 23.42 14.218C25.4676 14.218 28.2877 15.241 30.9712 16.9703C31.8847 17.5553 32.7982 18.2468 33.6497 19.0177C35.3438 21.0155 36.4435 23.3481 36.155 25.7002C36.0965 26.1728 35.9712 26.6802 35.7671 27.2049C35.6253 25.2828 34.7409 23.4382 33.4838 21.7945C32.0929 19.9749 30.2382 18.3916 28.4017 17.208ZM17.9319 16.1284C18.0972 15.9588 18.2764 15.8141 18.4622 15.701C18.6179 15.6043 18.7914 15.5238 18.982 15.4596C19.1807 15.3927 19.3986 15.3433 19.6346 15.3114C19.0786 16.2359 18.6603 17.4869 18.3673 19.0819C18.0477 20.8204 17.8749 22.9764 17.839 25.5804C17.7922 28.7653 18.0292 31.3312 18.5493 33.2614C18.1214 32.5182 17.784 31.5236 17.5429 30.2747C17.2164 28.5829 17.0686 26.4381 17.1044 23.8479C17.1488 20.5336 17.4231 17.9712 17.9319 16.1284ZM21.7194 12.4728C23.1799 12.4728 25.0421 12.9973 26.9688 13.9327C26.1024 13.6397 25.2709 13.439 24.5005 13.3374C23.1017 13.1532 21.886 13.2937 21.0367 13.8237C20.809 13.9639 20.6075 14.1276 20.4094 14.3209C19.6841 14.312 19.0291 14.4104 18.4772 14.6258C18.859 13.7972 19.3231 13.2321 19.8504 12.9084C20.3053 12.6221 20.9295 12.4728 21.7194 12.4728ZM19.249 35.3851L19.2962 35.4144C19.3378 35.4398 19.3805 35.4653 19.4235 35.4898C19.7486 36.0597 20.1294 36.5197 20.5672 36.8665C21.2222 37.3848 22.1087 37.7135 23.1608 37.8523C22.2156 38.0168 21.3355 38.0665 20.5559 38.0031C19.5236 37.9197 18.676 37.6389 18.0822 37.1736C17.2776 36.5357 16.6646 35.3466 16.2654 33.5818C15.8669 31.8209 15.6859 29.5078 15.7258 26.6492C15.7648 23.8526 15.9669 21.5958 16.333 19.8515C16.2214 21.0423 16.1554 22.3688 16.1384 23.8354C16.0933 26.8168 16.2972 29.2567 16.7483 31.1386C17.199 33.0179 17.9005 34.3596 18.8666 35.1212L18.8693 35.1233C18.9632 35.1937 19.0595 35.2617 19.1596 35.3274L19.249 35.3851ZM37.1106 25.8223C37.2244 24.8907 37.1491 23.9695 36.925 23.074C37.6612 24.4732 38.0356 25.9569 37.8471 27.4452C37.5865 29.5276 35.98 32.3126 32.3094 34.4957C34.0674 32.9064 35.0844 31.1872 35.5156 29.6594C36.4671 28.325 36.9647 26.9865 37.1106 25.8223Z" fill="white"/>
</g>
<defs>
<linearGradient id="paint0_linear_916_1779" x1="2.3642" y1="31.965" x2="49.697" y2="20.912" gradientUnits="userSpaceOnUse">
<stop stop-color="#FF6C2E"/>
<stop offset="1" stop-color="#F3725A" stop-opacity="0"/>
</linearGradient>
<linearGradient id="paint1_linear_916_1779" x1="40.1438" y1="12.1651" x2="1.88289" y2="41.0089" gradientUnits="userSpaceOnUse">
<stop stop-color="#FFA756"/>
<stop offset="1" stop-color="#F8765E" stop-opacity="0"/>
</linearGradient>
<clipPath id="clip0_916_1779">
<rect width="50" height="50" fill="white"/>
</clipPath>
</defs>
</svg>

<svg xmlns="http://www.w3.org/2000/svg" width="50" height="50" fill="none"><g clip-path="url(#a)"><path fill="#ED6C53" d="M24.945 49.93c13.7 0 24.804-11.17 24.804-24.95S38.644.03 24.945.03.142 11.2.142 24.98s11.105 24.95 24.803 24.95"/><path fill="#F3725A" d="M24.945 49.93c13.7 0 24.804-11.17 24.804-24.95S38.644.03 24.945.03.142 11.2.142 24.98s11.105 24.95 24.803 24.95"/><path fill="url(#b)" d="M24.945 49.93c13.7 0 24.804-11.17 24.804-24.95S38.644.03 24.945.03.142 11.2.142 24.98s11.105 24.95 24.803 24.95"/><path fill="url(#c)" d="M24.905 47.933c12.624 0 22.858-10.295 22.858-22.994S37.53 1.946 24.905 1.946 2.047 12.24 2.047 24.939c0 12.7 10.234 22.994 22.858 22.994"/><path fill="#fff" fill-rule="evenodd" d="M21.236 38.99c1.777 0 3.81-.452 5.871-1.298q.098-.04.193-.083l.175-.08.025-.011.004-.002a19 19 0 0 0 2.683-.89c5.818-2.404 8.277-6.243 8.633-9.067.428-3.456-1.757-6.76-4.504-9.24-1.307-1.53-2.927-2.87-4.536-3.903-2.038-1.314-4.126-2.214-5.962-2.629-1.83-.413-3.437-.35-4.49.3-1.013.623-1.758 1.806-2.272 3.576-.75.876-1.303 2.201-1.68 4-.381 1.818-.585 4.132-.625 6.982-.04 2.982.163 5.422.613 7.304.45 1.879 1.149 3.22 2.115 3.983.884.697 2.19 1.059 3.757 1.059m7.25-4.1c1.908-.79 3.457-1.734 4.692-2.748-1.205 1.598-3.136 3.203-5.99 4.463-.636.152-1.249.258-1.83.317a9.6 9.6 0 0 1-1.71.029c-1.036-.083-1.888-.364-2.486-.833l-.07-.058c.47.084.98.13 1.522.13 1.778 0 3.81-.454 5.873-1.3m6.281-6.389a4 4 0 0 1-.058.377q-.035.18-.084.369c-1.256 1.706-3.343 3.437-6.505 4.748-1.623.671-3.196 1.07-4.584 1.195-1.368.123-2.546-.02-3.416-.42-.926-1.8-1.377-4.863-1.315-9.177.04-2.72.233-4.934.58-6.659.339-1.688.824-2.895 1.447-3.656 1.947.142 4.506 1.102 7.042 2.74 1.842 1.187 3.697 2.785 5.025 4.6 1.33 1.817 2.123 3.84 1.868 5.883m-6.365-11.293c-2.24-1.442-4.54-2.389-6.502-2.738a3.3 3.3 0 0 1 .746-.197q.357-.054.774-.055c2.048 0 4.868 1.023 7.551 2.752a20.5 20.5 0 0 1 2.679 2.048c1.694 1.997 2.794 4.33 2.505 6.682-.059.473-.184.98-.388 1.505-.142-1.922-1.026-3.767-2.283-5.41-1.391-1.82-3.246-3.403-5.082-4.587m-10.47-1.08a2.7 2.7 0 0 1 .53-.427q.235-.145.52-.241.299-.1.653-.149c-.556.925-.975 2.176-1.268 3.77-.32 1.74-.492 3.895-.528 6.5-.047 3.184.19 5.75.71 7.68q-.643-1.114-1.006-2.986-.491-2.54-.439-6.427c.045-3.314.32-5.877.828-7.72m3.787-3.655c1.46 0 3.323.524 5.25 1.46a13 13 0 0 0-2.469-.596c-1.398-.184-2.614-.043-3.463.487a3.6 3.6 0 0 0-.628.497c-.725-.009-1.38.09-1.932.305.382-.829.846-1.394 1.373-1.718.455-.286 1.08-.435 1.87-.435m-2.47 22.912.047.03.128.075q.487.856 1.143 1.377c.655.518 1.542.847 2.594.985-.945.165-1.826.215-2.605.151-1.032-.083-1.88-.364-2.474-.83-.804-.637-1.417-1.826-1.817-3.591q-.599-2.643-.54-6.933c.04-2.796.242-5.053.608-6.797a49 49 0 0 0-.195 3.983c-.045 2.982.16 5.422.61 7.304.451 1.879 1.152 3.22 2.119 3.982l.002.002q.14.106.29.204zm17.862-9.563a7.5 7.5 0 0 0-.186-2.748c.736 1.4 1.11 2.883.922 4.371-.26 2.083-1.867 4.868-5.538 7.05 1.758-1.589 2.775-3.308 3.207-4.836.951-1.334 1.449-2.672 1.595-3.837" clip-rule="evenodd"/></g><defs><linearGradient id="b" x1="2.364" x2="49.697" y1="31.965" y2="20.912" gradientUnits="userSpaceOnUse"><stop stop-color="#FF6C2E"/><stop offset="1" stop-color="#F3725A" stop-opacity="0"/></linearGradient><linearGradient id="c" x1="40.144" x2="1.883" y1="12.165" y2="41.009" gradientUnits="userSpaceOnUse"><stop stop-color="#FFA756"/><stop offset="1" stop-color="#F8765E" stop-opacity="0"/></linearGradient><clipPath id="a"><path fill="#fff" d="M0 0h50v50H0z"/></clipPath></defs></svg>
